X: 1
T: Larinettivalssi
O: Finland
R: waltz
Z: 2007 John Chambers <jc@trillian.mit.edu> 
S: printed MS of unknown origin with some handwritten chords and "SKS:n kokoelmat. Tallennettu Savonlinnasta."
M: 3/4
L: 1/8
K: Am
z2 \
| "Am"e2 d2 cB | A2 EA c2  \
| "E7"B2 E^G B2 | "Am"A^G AB cd \
| "Am"e2 d2 cB | A2 EA c2  \
| "E7"B2 E^G BG | "Am"A4 :|
|: z2 \
|  "Am"A^G Ac BA | "E7"^GB E2 E2 \
|  "Am"A^G AB cd | "E7"e2 dc Bc \
|  "Am"A^G Ac BA | "E7"^GB E2 E2 \
|  "Am"A^G Ac "E7"BG | "Am"A2 A2 :|
|: "G7"B2 \
|   "C"cB ce dc | "G7"Bd G2 G2 \
|   "C"cB ce dc | "E7"Bd c2 B2 \
|  "Am"A^G Ac BA | "E7"^GB E2 E2 \
|  "Dm"A^G Ac "E7"BG | "Am"A4 :|
